X:147
T:Humours of Glen with Variations. RH.147
R:Air
S:Rev.R.Harrison’s MS,c1815,Cumbria
N:Formatting removed to keep it on one page! SW.
O:England
A:Temple Sowerby,Cumbria
Z:vmp.Simon Wilson. Review PJH, 2008.
M:3/4
L:1/8
Q:1/4=120
K:Bm
F2|B2dcBA|B2F2F2|F2d2c2|d2F2F2|\
B2dcBA|B2F2d2|E2F2A2|B4D2|!
B2dcBA|B2F2F2|F2d2c2|d2F2F2|\
G2AGFE|F2GFED|E2F2A2|B4:|!
|:d2|A2B2d2|d3ed2|d2f2a2|a2f2d2|\
gbagfe|f2d2B2|B2F2A2|B4:|!
|:dB|A2F2F2|d2F2F2|A2F2F2|B3B dB|\
A2F2F2|d2F2ED|E2F2A2|B4dB|!
A2F2F2|d2F2F2|d2fedc|d2F2F2|\
G2A/G/F G/F/E|F2G/F/E F/E/D|E2F2A2|B4:|!
|:F2|B2b2b2|a2f2d2|g2agfe|f2d2B2|\
B2b2b2|a2f2d2|gbagfe|f4ga|!
b2b2b2|a2a2a2|g2agfe|f2d2B2|\
g3f ef/g/|f2d2B2|A2F2A2|B4:|!
|:dB|AFBFdF|AFBFdF|AFBFdF|BAGFED|\
AFBFdF|AFBFdF|E2F2A2|B4dB|!
AFBFdF|AFBFdF|AFBFdF|BAGFED|\
G2A/G/F G/F/E|F2G/F/E F/E/D|E2F2A2|B4:|!
|:F2|B2b2b2|a2f2d2|g2agfe|f2d2B2|\
B2b2b2|a2f2d2|gbagfe|f4ga|!
b2B2b2|a2A2a2|g2G2g2|f2d2B2|\
d3c dB|AFBFdF|E2F2A2|B4:|!
|:d2|F2A2d2|F2A2d2|F2A2d2|BAGFED|\
F2A2d2|F3E DE/F/|E2F2A2|B4d2|!
F2A2d2|F2A2d2|gbagfe|f2d2B2|\
d3c dB|AFGEFD|E2F2A2|B4:|!
|:d2|A2B2d2|d3ed2|d2f2a2|a2f2d2|\
gbagfe|f2d2B2|A2F2A2|B4:|

